X:1
T:Title
%%score { 1 | ( 2 3 ) }
L:1/8
Q:1/4=100
M:9/8
K:G
V:1 treble nm="Grand Piano"
V:2 bass 
V:3 bass 
V:1
 [DB]AG E3 D3 | DEF G3 G3 | [FA]2 [FA] [FA]3 [A,DF]3 | [B,DG]2 [DGB] [DFA]6 | [DB]AG E3 D3 | %5
w: Wm.~H.~Dana * * * *|||||
 DEF G3 G3 | B2 B B3 [DG]3 | [DGB]2 [CFA] [B,G]6 | [FA]2 [FA] [FA]6 | B2 B B6 | B2 A G3 [DFA]3 | %11
w: ||||||
 [DGB]2 [DGB] [DFA]6 | [DB]AG E3 D3 | DEF G3 G3 | B2 B B3 [DG]3 | [DGB]2 [CFA] [B,G]6 |] %16
w: |||||
V:2
 z C[G,B,D] [G,C]3 [G,B,]3 | B,C[D,CD] [G,B,D]3 [G,B,D]3 | [D,D]2 [D,D] [D,D]3 D,3 | G,2 G, D,6 | %4
 z C[G,B,D] [G,C]3 [G,B,]3 | B,C[D,CD][K:treble] [G,B,D]3 [G,B,D]3 | %6
 [G,DG]2 [G,DG] [G,DG]3[K:bass] B,,3 | D,2 D, G,6 | [D,D]2 [D,D] [D,D]6 | [G,DG]2 [G,DG] [G,DG]6 | %10
 [G,D]2 [G,CD][K:bass] [G,B,D]3 D,3 | G,2 G, D,6 | z C[G,B,D] [G,C]3 [G,B,]3 | %13
 B,C[D,CD][K:treble] [G,B,D]3 [G,B,D]3 | [G,DG]2 [G,DG] [G,DG]3[K:bass] B,,3 | D,2 D, G,6 |] %16
V:3
 .G,3 z3 z3 | .G,3 z3 z3 | x9 | x9 | .G,3 z3 z3 | .G,3[K:treble] z3 z3 | x6[K:bass] x3 | x9 | x9 | %9
 x9 | x3[K:bass] x6 | x9 | .G,3 z3 z3 | .G,3[K:treble] z3 z3 | x6[K:bass] x3 | x9 |] %16

